tools/download-figma-icons/icons/action/form.svg

<svg width="24" height="24" viewBox="0 0 24 24" fill="none" xmlns="http://www.w3.org/2000/svg">
<path fill-rule="evenodd" clip-rule="evenodd" d="M23.2827 2.67527L21.1614 0.553946C20.5024 -0.105064 19.4339 -0.105064 18.7749 0.553945L8.2035 11.1254C8.09167 11.2253 8.00194 11.3546 7.94766 11.5094C7.93579 11.5429 7.92589 11.5769 7.91794 11.6112L6.86107 15.8387C6.68942 16.5253 7.31135 17.1473 7.99795 16.9756L12.226 15.9186C12.2592 15.9109 12.2921 15.9013 12.3245 15.89C12.4807 15.8358 12.6109 15.7456 12.7114 15.633L23.2827 5.06175C23.9417 4.40274 23.9417 3.33428 23.2827 2.67527ZM9.05939 14.7767L9.33925 13.6573L10.1788 14.4969L9.05939 14.7767ZM19.4735 6.21831L12.0129 13.6789L10.1568 11.8228L17.6174 4.36216L19.4735 6.21831ZM20.7994 4.89249L21.824 3.86783L19.9679 2.01167L18.9432 3.03633L20.7994 4.89249ZM0.00385857 21.7008C0.0755653 22.9826 1.13773 24 2.4375 24H18.1875L18.3258 23.9961C19.6077 23.9244 20.625 22.8622 20.625 21.5625V15.1875L20.6202 15.0916C20.5722 14.6189 20.1729 14.25 19.6875 14.25C19.1697 14.25 18.75 14.6697 18.75 15.1875V21.5625L18.7449 21.6388C18.7076 21.9134 18.4723 22.125 18.1875 22.125H2.4375L2.36117 22.1198C2.08661 22.0826 1.875 21.8472 1.875 21.5625V5.81247L1.88013 5.73614C1.91738 5.46158 2.15273 5.24997 2.4375 5.24997H10.3125L10.4084 5.24513C10.8811 5.19712 11.25 4.79788 11.25 4.31247C11.25 3.7947 10.8303 3.37497 10.3125 3.37497H2.4375L2.29918 3.37883C1.01734 3.45053 0 4.5127 0 5.81247V21.5625L0.00385857 21.7008Z" fill="black"/>
</svg>

<svg xmlns="http://www.w3.org/2000/svg" width="24" height="24" fill="none" viewBox="0 0 24 24"><path fill="currentColor" fill-rule="evenodd" d="M23.283 2.675 21.16.554a1.69 1.69 0 0 0-2.386 0L8.204 11.125a.92.92 0 0 0-.286.486L6.86 15.84a.937.937 0 0 0 1.137 1.137l4.228-1.057a.95.95 0 0 0 .485-.286L23.283 5.062a1.69 1.69 0 0 0 0-2.387M9.059 14.777l.28-1.12.84.84zm10.415-8.559-7.461 7.46-1.856-1.855 7.46-7.46zm1.325-1.326 1.025-1.024-1.856-1.856-1.025 1.024zM.004 21.701A2.44 2.44 0 0 0 2.438 24h15.75l.138-.004a2.44 2.44 0 0 0 2.299-2.433v-6.375l-.005-.096a.938.938 0 0 0-1.87.095v6.376l-.005.076a.56.56 0 0 1-.558.486H2.438l-.076-.005a.56.56 0 0 1-.486-.558V5.813l.005-.076a.56.56 0 0 1 .558-.486h7.874l.096-.005a.938.938 0 0 0-.095-1.87H2.436l-.138.004A2.44 2.44 0 0 0 0 5.812v15.75z" clip-rule="evenodd"/></svg>
